build/img/purchase/purchase-3.svg

<svg width="70" height="70" viewBox="0 0 70 70" fill="none" xmlns="http://www.w3.org/2000/svg">
<g clip-path="url(#clip0)">
<path d="M2.22968 13.0865L12.6096 2.81179C13.8438 1.5904 15.8449 1.5904 17.0792 2.81179L23.0942 8.76654L28.0444 13.6665L59.8492 45.1497L68.9233 68.8331L59.0513 65.1267L44.9997 59.8502L13.1939 28.3638L8.24371 23.4638L2.22861 17.5091C0.995476 16.2887 0.995476 14.3079 2.22968 13.0865Z" fill="#E7ECED"/>
<path d="M45.5573 60.06C47.4168 57.5083 49.8703 55.6941 52.3953 53.7773C53.9142 52.6248 55.7658 51.3645 56.8649 49.7687C57.6804 48.5836 58.0724 47.3863 59.0988 46.3224C59.3974 46.0132 59.7162 45.8033 60.0414 45.6506L59.8492 45.1496L28.0434 13.6648L13.1939 28.3653L44.9997 59.8501L45.5573 60.06Z" fill="white"/>
<path d="M8.24371 23.4654L23.0932 8.76494L17.0781 2.81073C15.8433 1.58881 13.8428 1.58881 12.6086 2.81073L2.22862 13.0855C0.994411 14.3069 0.994411 16.2877 2.22862 17.5107L8.24371 23.4654Z" fill="#1DD9B7"/>
<path d="M61.6879 65.7559C61.7205 65.7089 61.7493 65.6603 61.7857 65.616C61.8711 65.5097 61.9688 65.4151 62.0703 65.3206C62.0927 65.3009 62.1125 65.2784 62.1355 65.2587C62.2535 65.1561 62.3843 65.0675 62.5221 64.9858C62.5291 64.982 62.536 64.9778 62.5429 64.9729C62.6898 64.8864 62.8484 64.8154 63.0188 64.7561C63.4108 64.3908 63.9139 64.1222 64.5483 64.0325C64.7411 63.1005 65.2987 62.2578 66.2573 61.8765L59.9528 45.4216L45.2737 59.9528L61.4951 66.0437C61.5512 65.9423 61.6212 65.8504 61.6879 65.7559Z" fill="white"/>
<path d="M65.7478 60.5439L68.9233 68.8331L60.5504 65.6891L65.7478 60.5439Z" fill="#1DD9B7"/>
<path d="M13.1939 28.3653L28.0434 13.6649L23.0932 8.76489L8.24371 23.4654L13.1939 28.3653Z" fill="white"/>
<path d="M13.1335 60.5044C13.1335 62.4377 11.5666 64.0046 9.63333 64.0046C7.70058 64.0046 6.13365 62.4377 6.13365 60.5044C6.13365 58.5716 7.70058 57.0042 9.63333 57.0042C11.5666 57.0042 13.1335 58.5716 13.1335 60.5044Z" fill="white"/>
<path d="M13.1939 29.072C12.8847 29.072 12.5872 28.9497 12.3693 28.7302L7.41912 23.78C6.96304 23.324 6.96304 22.587 7.41912 22.1303L22.2686 7.28247C22.4876 7.06297 22.784 6.94067 23.0932 6.94067C23.4024 6.94067 23.6999 7.06297 23.9183 7.28247L28.8669 12.2327C29.323 12.6887 29.323 13.4263 28.8669 13.8824L14.019 28.7302C13.7995 28.9497 13.5031 29.072 13.1939 29.072ZM9.89341 22.9565L13.1928 26.257L26.3915 13.0572L23.0921 9.75676L9.89341 22.9565Z" fill="#5D5D5D"/>
<path d="M8.24371 24.1235C7.94518 24.1235 7.64664 24.0092 7.41913 23.7817L1.4035 17.7671C0.586929 16.9495 0.136719 15.8632 0.136719 14.707C0.136719 13.5507 0.586929 12.465 1.4035 11.6468L11.7834 1.26687C13.4705 -0.419685 16.2156 -0.419685 17.9027 1.26687L23.9183 7.28143C24.1373 7.50039 24.2601 7.79679 24.2601 8.10601C24.2601 8.41523 24.1373 8.7127 23.9183 8.93113L9.06883 23.7817C8.84132 24.0092 8.54279 24.1235 8.24371 24.1235ZM14.8436 2.33445C14.3325 2.33445 13.823 2.52938 13.4342 2.91817L3.05481 13.2976C2.67776 13.6736 2.47002 14.174 2.47002 14.707C2.47002 15.2405 2.67776 15.7409 3.05481 16.1163L8.24371 21.3058L21.4435 8.10708L16.254 2.91657C15.8647 2.52831 15.3547 2.33445 14.8436 2.33445Z" fill="#5D5D5D"/>
<path d="M49.9488 55.9287C49.6503 55.9287 49.3512 55.8144 49.1237 55.5869L41.6992 48.1624C41.2431 47.7063 41.2431 46.9688 41.6992 46.5127C42.1542 46.0566 42.8928 46.0566 43.3489 46.5127L50.7734 53.9372C51.2295 54.3933 51.2295 55.1308 50.7734 55.5869C50.5459 55.8144 50.2474 55.9287 49.9488 55.9287Z" fill="#5D5D5D"/>
<path d="M68.9233 69.9537C68.7845 69.9537 68.6446 69.9291 68.5105 69.8778L60.137 66.7007C59.7674 66.5597 59.4935 66.2409 59.4102 65.8548C59.3274 65.4676 59.4465 65.0649 59.7263 64.785L64.9243 59.5876C65.2042 59.3077 65.6063 59.1887 65.994 59.2714C66.3812 59.3542 66.6995 59.6282 66.84 59.9983L70.0155 68.3712C70.1773 68.8006 70.0737 69.285 69.7495 69.6103C69.5252 69.8346 69.2267 69.9537 68.9233 69.9537ZM62.6514 65.1594L66.9131 66.7765L65.296 62.5148L62.6514 65.1594Z" fill="#5D5D5D"/>
<path d="M68.9233 69.9536C68.7845 69.9536 68.6446 69.929 68.5105 69.8778L44.8608 60.9072C44.4913 60.7657 44.2168 60.4474 44.134 60.0613C44.0512 59.6741 44.1703 59.2714 44.4502 58.9915L59.1293 44.3124C59.4091 44.0326 59.8118 43.9135 60.199 43.9963C60.5862 44.0791 60.905 44.353 61.0449 44.7231L70.0155 68.3728C70.1773 68.8016 70.0737 69.286 69.7495 69.6118C69.5252 69.8345 69.2267 69.9536 68.9233 69.9536ZM47.3752 59.3649L66.9131 66.7765L59.5015 47.2385L47.3752 59.3649Z" fill="#5D5D5D"/>
<path d="M10.0126 70C7.37596 70 4.90862 68.9794 3.03354 67.1033C1.07622 65.1454 0.0492261 62.5424 0.142686 59.7765C0.236146 57.0101 1.43671 54.4824 3.52274 52.6608L41.1834 20.3001C42.5709 19.0995 43.2358 17.234 42.9581 15.3136C42.4331 11.6692 43.3933 8.59459 45.8132 6.17531L49.9372 2.04971C51.26 0.727921 53.0171 0 54.8873 0C56.7576 0 58.5147 0.727921 59.8364 2.04971C60.2925 2.5058 60.2925 3.24333 59.8364 3.69942L52.4114 11.1244L59.0113 17.7238L66.4363 10.2993C66.8913 9.84322 67.6294 9.84322 68.086 10.2993C70.8145 13.0283 70.8145 17.4696 68.086 20.1986L63.9604 24.3237C61.5406 26.7445 58.4655 27.7026 54.8222 27.1787C52.9017 26.9032 51.0373 27.567 49.8335 28.9566L17.4814 66.6087C15.6549 68.7001 13.1278 69.9007 10.3603 69.9941C10.2449 69.9989 10.128 70 10.0126 70Z" fill="#5D5D5D"/>
<path d="M22.8657 38.7448C22.5661 38.7448 22.267 38.6305 22.0411 38.403L12.3693 28.7302C11.9132 28.2741 11.9132 27.5371 12.3693 27.0805L27.2188 12.2315C27.6562 11.7936 28.4306 11.7936 28.8685 12.2315L39.6634 23.0264C39.893 23.2561 40.0169 23.5712 40.0041 23.8959C39.9924 24.22 39.8455 24.5255 39.5993 24.737L23.6262 38.4628C23.4072 38.6519 23.1365 38.7448 22.8657 38.7448ZM14.8436 27.9056L22.9255 35.988L37.1234 23.7869L28.0423 14.7058L14.8436 27.9056Z" fill="#5D5D5D"/>
<path d="M68.9233 69.9534C68.7845 69.9534 68.6446 69.9288 68.5105 69.8776L44.5869 60.8029C44.4325 60.7447 44.2926 60.6539 44.1762 60.5369L31.7337 48.0955C31.3017 47.664 31.276 46.9734 31.6728 46.5104L45.3986 30.5373C45.6101 30.2911 45.9156 30.1442 46.2398 30.1314C46.5698 30.1127 46.879 30.2436 47.1092 30.4721L60.6738 44.0356C60.7907 44.1526 60.8815 44.2925 60.9397 44.4474L70.0144 68.371C70.1762 68.8004 70.0726 69.2848 69.7485 69.61C69.5252 69.8343 69.2267 69.9534 68.9233 69.9534ZM45.647 58.7099L66.9131 66.7763L58.8467 45.5101L46.3498 33.0132L34.1498 47.2116L45.647 58.7099Z" fill="#5D5D5D"/>
</g>
<defs>
<clipPath id="clip0">
<rect width="70" height="70" fill="white"/>
</clipPath>
</defs>
</svg>

<svg width="70" height="70" fill="none" xmlns="http://www.w3.org/2000/svg"><g clip-path="url(#clip0)"><path d="M2.23 13.086L12.61 2.813a3.184 3.184 0 0 1 4.47 0l6.014 5.955 4.95 4.9L59.85 45.15l9.074 23.683-9.872-3.706L45 59.85 13.194 28.364l-4.95-4.9-6.015-5.955a3.105 3.105 0 0 1 0-4.423z" fill="#E7ECED"/><path d="M45.557 60.06c1.86-2.552 4.313-4.366 6.838-6.283 1.52-1.152 3.37-2.413 4.47-4.008.815-1.185 1.207-2.383 2.234-3.447.298-.309.617-.519.942-.671l-.192-.501-31.806-31.485-14.85 14.7L45 59.85l.557.21z" fill="#fff"/><path d="M8.244 23.465l14.85-14.7-6.016-5.954a3.183 3.183 0 0 0-4.47 0L2.229 13.085a3.107 3.107 0 0 0 0 4.426l6.016 5.954z" fill="#1DD9B7"/><path d="M61.688 65.756c.032-.047.061-.096.098-.14.085-.106.183-.2.284-.295.023-.02.042-.043.066-.062a2.625 2.625 0 0 1 .407-.286 2.58 2.58 0 0 1 .476-.217 2.766 2.766 0 0 1 1.53-.724c.192-.931.75-1.774 1.708-2.155l-6.304-16.455-14.68 14.53 16.222 6.092c.056-.102.126-.194.193-.288z" fill="#fff"/><path d="M65.748 60.544l3.175 8.29-8.373-3.145 5.198-5.145z" fill="#1DD9B7"/><path d="M13.194 28.365l14.85-14.7-4.95-4.9-14.85 14.7 4.95 4.9zm-.061 32.139a3.5 3.5 0 1 1-7 0 3.5 3.5 0 0 1 7 0z" fill="#fff"/><path d="M13.194 29.072a1.16 1.16 0 0 1-.825-.342l-4.95-4.95a1.166 1.166 0 0 1 0-1.65L22.27 7.282a1.164 1.164 0 0 1 1.65 0l4.948 4.95a1.166 1.166 0 0 1 0 1.65L14.019 28.73c-.22.22-.516.342-.825.342zm-3.3-6.116l3.299 3.301 13.199-13.2-3.3-3.3-13.199 13.2z" fill="#5D5D5D"/><path d="M8.244 24.123c-.299 0-.597-.114-.825-.341l-6.015-6.015a4.302 4.302 0 0 1-1.267-3.06c0-1.156.45-2.242 1.266-3.06l10.38-10.38a4.333 4.333 0 0 1 6.12 0l6.015 6.014a1.166 1.166 0 0 1 0 1.65l-14.85 14.85a1.163 1.163 0 0 1-.824.343zm6.6-21.789c-.511 0-1.021.195-1.41.584l-10.38 10.38a1.977 1.977 0 0 0-.584 1.409c0 .534.208 1.034.585 1.41l5.189 5.189 13.2-13.199-5.19-5.19a1.99 1.99 0 0 0-1.41-.583zm35.105 53.595c-.299 0-.598-.115-.825-.342l-7.425-7.425a1.166 1.166 0 1 1 1.65-1.65l7.424 7.425a1.166 1.166 0 0 1-.824 1.992zm18.974 14.025c-.139 0-.278-.025-.413-.076L60.137 66.7a1.168 1.168 0 0 1-.41-1.916l5.197-5.197a1.167 1.167 0 0 1 1.916.41l3.175 8.373a1.17 1.17 0 0 1-1.092 1.583zm-6.272-4.795l4.262 1.617-1.617-4.261-2.645 2.644z" fill="#5D5D5D"/><path d="M68.923 69.954c-.139 0-.278-.025-.413-.076l-23.65-8.97a1.168 1.168 0 0 1-.41-1.916l14.68-14.68a1.168 1.168 0 0 1 1.915.411l8.97 23.65a1.17 1.17 0 0 1-.266 1.239 1.173 1.173 0 0 1-.826.342zm-21.548-10.59l19.538 7.413-7.411-19.538-12.127 12.126zM10.013 70a9.78 9.78 0 0 1-6.98-2.897 9.795 9.795 0 0 1-2.89-7.326 9.794 9.794 0 0 1 3.38-7.116l37.66-32.36c1.388-1.201 2.053-3.067 1.775-4.987-.525-3.645.435-6.72 2.855-9.139l4.124-4.125A6.956 6.956 0 0 1 54.887 0c1.87 0 3.628.728 4.95 2.05a1.166 1.166 0 0 1 0 1.65l-7.426 7.424 6.6 6.6 7.425-7.425a1.166 1.166 0 0 1 1.65 0 7.01 7.01 0 0 1 0 9.9l-4.126 4.125c-2.42 2.42-5.495 3.379-9.138 2.855-1.92-.276-3.785.388-4.989 1.778L17.482 66.609A9.798 9.798 0 0 1 10.013 70z" fill="#5D5D5D"/><path d="M22.866 38.745c-.3 0-.599-.114-.825-.342L12.37 28.73a1.166 1.166 0 0 1 0-1.65l14.85-14.848c.437-.438 1.212-.438 1.65 0l10.794 10.794a1.165 1.165 0 0 1-.064 1.711L23.626 38.463a1.16 1.16 0 0 1-.76.282zm-8.022-10.84l8.082 8.083 14.197-12.201-9.08-9.081-13.2 13.2zm54.079 42.048c-.139 0-.278-.024-.413-.075l-23.923-9.075a1.153 1.153 0 0 1-.41-.266L31.733 48.096a1.167 1.167 0 0 1-.061-1.586l13.726-15.973a1.17 1.17 0 0 1 .84-.406c.33-.018.64.113.87.341l13.565 13.564c.117.117.208.256.266.411l9.074 23.924a1.17 1.17 0 0 1-1.09 1.582zM45.647 58.71l21.266 8.066-8.066-21.266L46.35 33.013l-12.2 14.199L45.647 58.71z" fill="#5D5D5D"/></g><defs><clipPath id="clip0"><path fill="#fff" d="M0 0h70v70H0z"/></clipPath></defs></svg>
